Static/arrow-drop.svg

<svg width="24" height="24" viewBox="0 0 24 24" fill="none" xmlns="http://www.w3.org/2000/svg">
<path d="M18.2052 8.2561C17.8448 7.91463 17.2597 7.91463 16.8993 8.2561L12.653 12.2789C12.2925 12.6204 11.7075 12.6204 11.347 12.2789L7.10074 8.2561C6.7403 7.91463 6.15522 7.91463 5.79478 8.2561L5.26965 8.7536C4.91012 9.09421 4.91012 9.64579 5.26965 9.9864L11.347 15.7439C11.7075 16.0854 12.2925 16.0854 12.653 15.7439L18.7304 9.9864C19.0899 9.64579 19.0899 9.0942 18.7304 8.7536L18.2052 8.2561Z" fill="#CDCDCD"/>
</svg>

<svg xmlns="http://www.w3.org/2000/svg" width="24" height="24" fill="none"><path fill="#CDCDCD" d="M18.205 8.256a.96.96 0 0 0-1.306 0l-4.246 4.023a.96.96 0 0 1-1.306 0L7.101 8.256a.96.96 0 0 0-1.306 0l-.525.498a.84.84 0 0 0 0 1.232l6.077 5.758a.96.96 0 0 0 1.306 0l6.077-5.758a.84.84 0 0 0 0-1.232l-.525-.498Z"/></svg>
